src/pages/account/organization/benefits/decorator-points.svg

<svg xmlns="http://www.w3.org/2000/svg" viewBox="0 0 153.6 94" style="enable-background:new 0 0 153.6 94" xml:space="preserve"><g transform="translate(-156.184 -123.115)"><radialGradient id="a" cx="-61.237" cy="533.496" r="24.766" gradientTransform="matrix(7.98 0 0 -7.98 646.87 4386.707)" gradientUnits="userSpaceOnUse"><stop offset="0" style="stop-color:#35fff7"/><stop offset=".164" style="stop-color:#31dee2"/><stop offset=".525" style="stop-color:#288aae"/><stop offset="1" style="stop-color:#1b1464"/></radialGradient><path d="M305.8 209.1c-2.2 0-4 1.8-4 4s1.8 4 4 4 4-1.8 4-4-1.8-4-4-4z" style="fill:url(#a)"/><radialGradient id="b" cx="-56.676" cy="533.496" r="24.766" gradientTransform="matrix(7.98 0 0 -7.98 610.47 4386.707)" gradientUnits="userSpaceOnUse"><stop offset="0" style="stop-color:#35fff7"/><stop offset=".164" style="stop-color:#31dee2"/><stop offset=".525" style="stop-color:#288aae"/><stop offset="1" style="stop-color:#1b1464"/></radialGradient><path d="M269.4 209.1c-2.2 0-4 1.8-4 4s1.8 4 4 4 4-1.8 4-4-1.8-4-4-4z" style="fill:url(#b)"/><radialGradient id="c" cx="-52.116" cy="533.496" r="24.766" gradientTransform="matrix(7.98 0 0 -7.98 574.071 4386.707)" gradientUnits="userSpaceOnUse"><stop offset="0" style="stop-color:#35fff7"/><stop offset=".164" style="stop-color:#31dee2"/><stop offset=".525" style="stop-color:#288aae"/><stop offset="1" style="stop-color:#1b1464"/></radialGradient><path d="M233 209.1c-2.2 0-4 1.8-4 4s1.8 4 4 4 4-1.8 4-4-1.8-4-4-4z" style="fill:url(#c)"/><radialGradient id="d" cx="-47.554" cy="533.496" r="24.766" gradientTransform="matrix(7.98 0 0 -7.98 537.673 4386.707)" gradientUnits="userSpaceOnUse"><stop offset="0" style="stop-color:#35fff7"/><stop offset=".164" style="stop-color:#31dee2"/><stop offset=".525" style="stop-color:#288aae"/><stop offset="1" style="stop-color:#1b1464"/></radialGradient><path d="M196.6 209.1c-2.2 0-4 1.8-4 4s1.8 4 4 4 4-1.8 4-4-1.8-4-4-4z" style="fill:url(#d)"/><radialGradient id="e" cx="-42.992" cy="533.496" r="24.766" gradientTransform="matrix(7.98 0 0 -7.98 501.275 4386.707)" gradientUnits="userSpaceOnUse"><stop offset="0" style="stop-color:#35fff7"/><stop offset=".164" style="stop-color:#31dee2"/><stop offset=".525" style="stop-color:#288aae"/><stop offset="1" style="stop-color:#1b1464"/></radialGradient><path d="M160.2 209.1c-2.2 0-4 1.8-4 4s1.8 4 4 4 4-1.8 4-4-1.8-4-4-4z" style="fill:url(#e)"/><radialGradient id="f" cx="-61.237" cy="529.902" r="24.766" gradientTransform="matrix(7.98 0 0 -7.98 646.87 4358.038)" gradientUnits="userSpaceOnUse"><stop offset="0" style="stop-color:#35fff7"/><stop offset=".164" style="stop-color:#31dee2"/><stop offset=".525" style="stop-color:#288aae"/><stop offset="1" style="stop-color:#1b1464"/></radialGradient><path d="M305.8 180.5c-2.2 0-4 1.8-4 4s1.8 4 4 4 4-1.8 4-4c0-2.3-1.8-4-4-4z" style="fill:url(#f)"/><radialGradient id="g" cx="-56.677" cy="529.902" r="24.765" gradientTransform="matrix(7.98 0 0 -7.98 610.47 4358.04)" gradientUnits="userSpaceOnUse"><stop offset="0" style="stop-color:#35fff7"/><stop offset=".164" style="stop-color:#31dee2"/><stop offset=".525" style="stop-color:#288aae"/><stop offset="1" style="stop-color:#1b1464"/></radialGradient><circle cx="269.4" cy="184.5" r="4" style="fill:url(#g)"/><radialGradient id="h" cx="-52.116" cy="529.902" r="24.766" gradientTransform="matrix(7.98 0 0 -7.98 574.071 4358.038)" gradientUnits="userSpaceOnUse"><stop offset="0" style="stop-color:#35fff7"/><stop offset=".164" style="stop-color:#31dee2"/><stop offset=".525" style="stop-color:#288aae"/><stop offset="1" style="stop-color:#1b1464"/></radialGradient><path d="M233 180.5c-2.2 0-4 1.8-4 4s1.8 4 4 4 4-1.8 4-4c0-2.3-1.8-4-4-4z" style="fill:url(#h)"/><radialGradient id="i" cx="-47.554" cy="529.902" r="24.766" gradientTransform="matrix(7.98 0 0 -7.98 537.673 4358.038)" gradientUnits="userSpaceOnUse"><stop offset="0" style="stop-color:#35fff7"/><stop offset=".164" style="stop-color:#31dee2"/><stop offset=".525" style="stop-color:#288aae"/><stop offset="1" style="stop-color:#1b1464"/></radialGradient><path d="M196.6 180.5c-2.2 0-4 1.8-4 4s1.8 4 4 4 4-1.8 4-4c0-2.3-1.8-4-4-4z" style="fill:url(#i)"/><radialGradient id="j" cx="-42.992" cy="529.902" r="24.766" gradientTransform="matrix(7.98 0 0 -7.98 501.275 4358.038)" gradientUnits="userSpaceOnUse"><stop offset="0" style="stop-color:#35fff7"/><stop offset=".164" style="stop-color:#31dee2"/><stop offset=".525" style="stop-color:#288aae"/><stop offset="1" style="stop-color:#1b1464"/></radialGradient><path d="M160.2 180.5c-2.2 0-4 1.8-4 4s1.8 4 4 4 4-1.8 4-4-1.8-4-4-4z" style="fill:url(#j)"/><radialGradient id="k" cx="-61.237" cy="526.309" r="24.766" gradientTransform="matrix(7.98 0 0 -7.98 646.87 4329.364)" gradientUnits="userSpaceOnUse"><stop offset="0" style="stop-color:#35fff7"/><stop offset=".164" style="stop-color:#31dee2"/><stop offset=".525" style="stop-color:#288aae"/><stop offset="1" style="stop-color:#1b1464"/></radialGradient><path d="M305.8 151.8c-2.2 0-4 1.8-4 4s1.8 4 4 4 4-1.8 4-4-1.8-4-4-4z" style="fill:url(#k)"/><radialGradient id="l" cx="-56.676" cy="526.309" r="24.766" gradientTransform="matrix(7.98 0 0 -7.98 610.47 4329.364)" gradientUnits="userSpaceOnUse"><stop offset="0" style="stop-color:#35fff7"/><stop offset=".164" style="stop-color:#31dee2"/><stop offset=".525" style="stop-color:#288aae"/><stop offset="1" style="stop-color:#1b1464"/></radialGradient><path d="M269.4 151.8c-2.2 0-4 1.8-4 4s1.8 4 4 4 4-1.8 4-4-1.8-4-4-4z" style="fill:url(#l)"/><radialGradient id="m" cx="-52.116" cy="526.309" r="24.766" gradientTransform="matrix(7.98 0 0 -7.98 574.071 4329.364)" gradientUnits="userSpaceOnUse"><stop offset="0" style="stop-color:#35fff7"/><stop offset=".164" style="stop-color:#31dee2"/><stop offset=".525" style="stop-color:#288aae"/><stop offset="1" style="stop-color:#1b1464"/></radialGradient><path d="M233 151.8c-2.2 0-4 1.8-4 4s1.8 4 4 4 4-1.8 4-4-1.8-4-4-4z" style="fill:url(#m)"/><radialGradient id="n" cx="-47.554" cy="526.309" r="24.766" gradientTransform="matrix(7.98 0 0 -7.98 537.673 4329.364)" gradientUnits="userSpaceOnUse"><stop offset="0" style="stop-color:#35fff7"/><stop offset=".164" style="stop-color:#31dee2"/><stop offset=".525" style="stop-color:#288aae"/><stop offset="1" style="stop-color:#1b1464"/></radialGradient><path d="M196.6 151.8c-2.2 0-4 1.8-4 4s1.8 4 4 4 4-1.8 4-4-1.8-4-4-4z" style="fill:url(#n)"/><radialGradient id="o" cx="-42.992" cy="526.309" r="24.766" gradientTransform="matrix(7.98 0 0 -7.98 501.275 4329.364)" gradientUnits="userSpaceOnUse"><stop offset="0" style="stop-color:#35fff7"/><stop offset=".164" style="stop-color:#31dee2"/><stop offset=".525" style="stop-color:#288aae"/><stop offset="1" style="stop-color:#1b1464"/></radialGradient><path d="M160.2 151.8c-2.2 0-4 1.8-4 4s1.8 4 4 4 4-1.8 4-4-1.8-4-4-4z" style="fill:url(#o)"/><radialGradient id="p" cx="-61.237" cy="522.715" r="24.766" gradientTransform="matrix(7.98 0 0 -7.98 646.867 4300.7)" gradientUnits="userSpaceOnUse"><stop offset="0" style="stop-color:#35fff7"/><stop offset=".164" style="stop-color:#31dee2"/><stop offset=".525" style="stop-color:#288aae"/><stop offset="1" style="stop-color:#1b1464"/></radialGradient><path d="M305.8 131.1c2.2 0 4-1.8 4-4s-1.8-4-4-4-4 1.8-4 4 1.8 4 4 4z" style="fill:url(#p)"/><radialGradient id="q" cx="-56.677" cy="522.715" r="24.765" gradientTransform="matrix(7.98 0 0 -7.98 610.47 4300.694)" gradientUnits="userSpaceOnUse"><stop offset="0" style="stop-color:#35fff7"/><stop offset=".164" style="stop-color:#31dee2"/><stop offset=".525" style="stop-color:#288aae"/><stop offset="1" style="stop-color:#1b1464"/></radialGradient><circle cx="269.4" cy="127.1" r="4" style="fill:url(#q)"/><radialGradient id="r" cx="-52.116" cy="522.715" r="24.766" gradientTransform="matrix(7.98 0 0 -7.98 574.071 4300.691)" gradientUnits="userSpaceOnUse"><stop offset="0" style="stop-color:#35fff7"/><stop offset=".164" style="stop-color:#31dee2"/><stop offset=".525" style="stop-color:#288aae"/><stop offset="1" style="stop-color:#1b1464"/></radialGradient><path d="M233 123.1c-2.2 0-4 1.8-4 4s1.8 4 4 4 4-1.8 4-4-1.8-4-4-4z" style="fill:url(#r)"/><radialGradient id="s" cx="-47.554" cy="522.715" r="24.766" gradientTransform="matrix(7.98 0 0 -7.98 537.673 4300.691)" gradientUnits="userSpaceOnUse"><stop offset="0" style="stop-color:#35fff7"/><stop offset=".164" style="stop-color:#31dee2"/><stop offset=".525" style="stop-color:#288aae"/><stop offset="1" style="stop-color:#1b1464"/></radialGradient><path d="M196.6 123.1c-2.2 0-4 1.8-4 4s1.8 4 4 4 4-1.8 4-4-1.8-4-4-4z" style="fill:url(#s)"/><radialGradient id="t" cx="-42.992" cy="522.715" r="24.766" gradientTransform="matrix(7.98 0 0 -7.98 501.275 4300.691)" gradientUnits="userSpaceOnUse"><stop offset="0" style="stop-color:#35fff7"/><stop offset=".164" style="stop-color:#31dee2"/><stop offset=".525" style="stop-color:#288aae"/><stop offset="1" style="stop-color:#1b1464"/></radialGradient><path d="M160.2 123.1c-2.2 0-4 1.8-4 4s1.8 4 4 4 4-1.8 4-4-1.8-4-4-4z" style="fill:url(#t)"/></g></svg>

<?xml version="1.0" encoding="utf-8"?>
<!-- Generator: Adobe Illustrator 25.1.0, SVG Export Plug-In . SVG Version: 6.00 Build 0)  -->
<svg version="1.1" id="图层_1" xmlns="http://www.w3.org/2000/svg" xmlns:xlink="http://www.w3.org/1999/xlink" x="0px" y="0px"
	 viewBox="0 0 153.6 94" style="enable-background:new 0 0 153.6 94;" xml:space="preserve">
<style type="text/css">
	.st0{fill:url(#路径_14288_1_);}
	.st1{fill:url(#路径_14289_1_);}
	.st2{fill:url(#路径_14290_1_);}
	.st3{fill:url(#路径_14291_1_);}
	.st4{fill:url(#路径_14292_1_);}
	.st5{fill:url(#路径_14293_1_);}
	.st6{fill:url(#椭圆_1276_1_);}
	.st7{fill:url(#路径_14294_1_);}
	.st8{fill:url(#路径_14295_1_);}
	.st9{fill:url(#路径_14296_1_);}
	.st10{fill:url(#路径_14297_1_);}
	.st11{fill:url(#路径_14298_1_);}
	.st12{fill:url(#路径_14299_1_);}
	.st13{fill:url(#路径_14300_1_);}
	.st14{fill:url(#路径_14301_1_);}
	.st15{fill:url(#路径_14302_1_);}
	.st16{fill:url(#椭圆_1277_1_);}
	.st17{fill:url(#路径_14303_1_);}
	.st18{fill:url(#路径_14304_1_);}
	.st19{fill:url(#路径_14305_1_);}
</style>
<g id="组_5172" transform="translate(-156.184 -123.115)">
	
		<radialGradient id="路径_14288_1_" cx="-61.2367" cy="533.496" r="24.766" gradientTransform="matrix(7.98 0 0 -7.98 646.8705 4386.707)" gradientUnits="userSpaceOnUse">
		<stop  offset="0" style="stop-color:#35FFF7"/>
		<stop  offset="0.164" style="stop-color:#31DEE2"/>
		<stop  offset="0.525" style="stop-color:#288AAE"/>
		<stop  offset="1" style="stop-color:#1B1464"/>
	</radialGradient>
	<path id="路径_14288" class="st0" d="M305.8,209.1c-2.2,0-4,1.8-4,4s1.8,4,4,4c2.2,0,4-1.8,4-4
		C309.8,210.9,308,209.1,305.8,209.1C305.8,209.1,305.8,209.1,305.8,209.1z"/>
	
		<radialGradient id="路径_14289_1_" cx="-56.6756" cy="533.496" r="24.766" gradientTransform="matrix(7.98 0 0 -7.98 610.4704 4386.707)" gradientUnits="userSpaceOnUse">
		<stop  offset="0" style="stop-color:#35FFF7"/>
		<stop  offset="0.164" style="stop-color:#31DEE2"/>
		<stop  offset="0.525" style="stop-color:#288AAE"/>
		<stop  offset="1" style="stop-color:#1B1464"/>
	</radialGradient>
	<path id="路径_14289" class="st1" d="M269.4,209.1c-2.2,0-4,1.8-4,4c0,2.2,1.8,4,4,4c2.2,0,4-1.8,4-4l0,0
		C273.4,210.9,271.6,209.1,269.4,209.1z"/>
	
		<radialGradient id="路径_14290_1_" cx="-52.1156" cy="533.496" r="24.766" gradientTransform="matrix(7.98 0 0 -7.98 574.0714 4386.707)" gradientUnits="userSpaceOnUse">
		<stop  offset="0" style="stop-color:#35FFF7"/>
		<stop  offset="0.164" style="stop-color:#31DEE2"/>
		<stop  offset="0.525" style="stop-color:#288AAE"/>
		<stop  offset="1" style="stop-color:#1B1464"/>
	</radialGradient>
	<path id="路径_14290" class="st2" d="M233,209.1c-2.2,0-4,1.8-4,4s1.8,4,4,4s4-1.8,4-4C237,210.9,235.2,209.1,233,209.1
		C233,209.1,233,209.1,233,209.1z"/>
	
		<radialGradient id="路径_14291_1_" cx="-47.5536" cy="533.496" r="24.766" gradientTransform="matrix(7.98 0 0 -7.98 537.6733 4386.707)" gradientUnits="userSpaceOnUse">
		<stop  offset="0" style="stop-color:#35FFF7"/>
		<stop  offset="0.164" style="stop-color:#31DEE2"/>
		<stop  offset="0.525" style="stop-color:#288AAE"/>
		<stop  offset="1" style="stop-color:#1B1464"/>
	</radialGradient>
	<path id="路径_14291" class="st3" d="M196.6,209.1c-2.2,0-4,1.8-4,4s1.8,4,4,4s4-1.8,4-4C200.6,210.9,198.8,209.1,196.6,209.1z"
		/>
	
		<radialGradient id="路径_14292_1_" cx="-42.9925" cy="533.496" r="24.766" gradientTransform="matrix(7.98 0 0 -7.98 501.2753 4386.707)" gradientUnits="userSpaceOnUse">
		<stop  offset="0" style="stop-color:#35FFF7"/>
		<stop  offset="0.164" style="stop-color:#31DEE2"/>
		<stop  offset="0.525" style="stop-color:#288AAE"/>
		<stop  offset="1" style="stop-color:#1B1464"/>
	</radialGradient>
	<path id="路径_14292" class="st4" d="M160.2,209.1c-2.2,0-4,1.8-4,4s1.8,4,4,4s4-1.8,4-4S162.4,209.1,160.2,209.1
		C160.2,209.1,160.2,209.1,160.2,209.1z"/>
	
		<radialGradient id="路径_14293_1_" cx="-61.2367" cy="529.902" r="24.766" gradientTransform="matrix(7.98 0 0 -7.98 646.8705 4358.0381)" gradientUnits="userSpaceOnUse">
		<stop  offset="0" style="stop-color:#35FFF7"/>
		<stop  offset="0.164" style="stop-color:#31DEE2"/>
		<stop  offset="0.525" style="stop-color:#288AAE"/>
		<stop  offset="1" style="stop-color:#1B1464"/>
	</radialGradient>
	<path id="路径_14293" class="st5" d="M305.8,180.5c-2.2,0-4,1.8-4,4s1.8,4,4,4c2.2,0,4-1.8,4-4
		C309.8,182.2,308,180.5,305.8,180.5C305.8,180.5,305.8,180.5,305.8,180.5z"/>
	
		<radialGradient id="椭圆_1276_1_" cx="-56.6766" cy="529.902" r="24.765" gradientTransform="matrix(7.98 0 0 -7.98 610.4696 4358.0396)" gradientUnits="userSpaceOnUse">
		<stop  offset="0" style="stop-color:#35FFF7"/>
		<stop  offset="0.164" style="stop-color:#31DEE2"/>
		<stop  offset="0.525" style="stop-color:#288AAE"/>
		<stop  offset="1" style="stop-color:#1B1464"/>
	</radialGradient>
	<circle id="椭圆_1276" class="st6" cx="269.4" cy="184.5" r="4"/>
	
		<radialGradient id="路径_14294_1_" cx="-52.1156" cy="529.902" r="24.766" gradientTransform="matrix(7.98 0 0 -7.98 574.0714 4358.0381)" gradientUnits="userSpaceOnUse">
		<stop  offset="0" style="stop-color:#35FFF7"/>
		<stop  offset="0.164" style="stop-color:#31DEE2"/>
		<stop  offset="0.525" style="stop-color:#288AAE"/>
		<stop  offset="1" style="stop-color:#1B1464"/>
	</radialGradient>
	<path id="路径_14294" class="st7" d="M233,180.5c-2.2,0-4,1.8-4,4s1.8,4,4,4s4-1.8,4-4C237,182.2,235.2,180.5,233,180.5
		C233,180.5,233,180.5,233,180.5z"/>
	
		<radialGradient id="路径_14295_1_" cx="-47.5536" cy="529.902" r="24.766" gradientTransform="matrix(7.98 0 0 -7.98 537.6733 4358.0381)" gradientUnits="userSpaceOnUse">
		<stop  offset="0" style="stop-color:#35FFF7"/>
		<stop  offset="0.164" style="stop-color:#31DEE2"/>
		<stop  offset="0.525" style="stop-color:#288AAE"/>
		<stop  offset="1" style="stop-color:#1B1464"/>
	</radialGradient>
	<path id="路径_14295" class="st8" d="M196.6,180.5c-2.2,0-4,1.8-4,4s1.8,4,4,4s4-1.8,4-4C200.6,182.2,198.8,180.5,196.6,180.5z"
		/>
	
		<radialGradient id="路径_14296_1_" cx="-42.9925" cy="529.902" r="24.766" gradientTransform="matrix(7.98 0 0 -7.98 501.2753 4358.0381)" gradientUnits="userSpaceOnUse">
		<stop  offset="0" style="stop-color:#35FFF7"/>
		<stop  offset="0.164" style="stop-color:#31DEE2"/>
		<stop  offset="0.525" style="stop-color:#288AAE"/>
		<stop  offset="1" style="stop-color:#1B1464"/>
	</radialGradient>
	<path id="路径_14296" class="st9" d="M160.2,180.5c-2.2,0-4,1.8-4,4s1.8,4,4,4s4-1.8,4-4S162.4,180.5,160.2,180.5
		C160.2,180.5,160.2,180.5,160.2,180.5z"/>
	
		<radialGradient id="路径_14297_1_" cx="-61.2367" cy="526.309" r="24.766" gradientTransform="matrix(7.98 0 0 -7.98 646.8705 4329.3643)" gradientUnits="userSpaceOnUse">
		<stop  offset="0" style="stop-color:#35FFF7"/>
		<stop  offset="0.164" style="stop-color:#31DEE2"/>
		<stop  offset="0.525" style="stop-color:#288AAE"/>
		<stop  offset="1" style="stop-color:#1B1464"/>
	</radialGradient>
	<path id="路径_14297" class="st10" d="M305.8,151.8c-2.2,0-4,1.8-4,4s1.8,4,4,4c2.2,0,4-1.8,4-4
		C309.8,153.6,308,151.8,305.8,151.8C305.8,151.8,305.8,151.8,305.8,151.8z"/>
	
		<radialGradient id="路径_14298_1_" cx="-56.6756" cy="526.309" r="24.766" gradientTransform="matrix(7.98 0 0 -7.98 610.4704 4329.3643)" gradientUnits="userSpaceOnUse">
		<stop  offset="0" style="stop-color:#35FFF7"/>
		<stop  offset="0.164" style="stop-color:#31DEE2"/>
		<stop  offset="0.525" style="stop-color:#288AAE"/>
		<stop  offset="1" style="stop-color:#1B1464"/>
	</radialGradient>
	<path id="路径_14298" class="st11" d="M269.4,151.8c-2.2,0-4,1.8-4,4c0,2.2,1.8,4,4,4c2.2,0,4-1.8,4-4l0,0
		C273.4,153.6,271.6,151.8,269.4,151.8z"/>
	
		<radialGradient id="路径_14299_1_" cx="-52.1156" cy="526.309" r="24.766" gradientTransform="matrix(7.98 0 0 -7.98 574.0714 4329.3643)" gradientUnits="userSpaceOnUse">
		<stop  offset="0" style="stop-color:#35FFF7"/>
		<stop  offset="0.164" style="stop-color:#31DEE2"/>
		<stop  offset="0.525" style="stop-color:#288AAE"/>
		<stop  offset="1" style="stop-color:#1B1464"/>
	</radialGradient>
	<path id="路径_14299" class="st12" d="M233,151.8c-2.2,0-4,1.8-4,4s1.8,4,4,4s4-1.8,4-4C237,153.6,235.2,151.8,233,151.8
		C233,151.8,233,151.8,233,151.8z"/>
	
		<radialGradient id="路径_14300_1_" cx="-47.5536" cy="526.309" r="24.766" gradientTransform="matrix(7.98 0 0 -7.98 537.6733 4329.3643)" gradientUnits="userSpaceOnUse">
		<stop  offset="0" style="stop-color:#35FFF7"/>
		<stop  offset="0.164" style="stop-color:#31DEE2"/>
		<stop  offset="0.525" style="stop-color:#288AAE"/>
		<stop  offset="1" style="stop-color:#1B1464"/>
	</radialGradient>
	<path id="路径_14300" class="st13" d="M196.6,151.8c-2.2,0-4,1.8-4,4s1.8,4,4,4s4-1.8,4-4C200.6,153.6,198.8,151.8,196.6,151.8z"
		/>
	
		<radialGradient id="路径_14301_1_" cx="-42.9925" cy="526.309" r="24.766" gradientTransform="matrix(7.98 0 0 -7.98 501.2753 4329.3643)" gradientUnits="userSpaceOnUse">
		<stop  offset="0" style="stop-color:#35FFF7"/>
		<stop  offset="0.164" style="stop-color:#31DEE2"/>
		<stop  offset="0.525" style="stop-color:#288AAE"/>
		<stop  offset="1" style="stop-color:#1B1464"/>
	</radialGradient>
	<path id="路径_14301" class="st14" d="M160.2,151.8c-2.2,0-4,1.8-4,4s1.8,4,4,4s4-1.8,4-4S162.4,151.8,160.2,151.8
		C160.2,151.8,160.2,151.8,160.2,151.8z"/>
	
		<radialGradient id="路径_14302_1_" cx="-61.2366" cy="522.715" r="24.766" gradientTransform="matrix(7.98 0 0 -7.98 646.8674 4300.6997)" gradientUnits="userSpaceOnUse">
		<stop  offset="0" style="stop-color:#35FFF7"/>
		<stop  offset="0.164" style="stop-color:#31DEE2"/>
		<stop  offset="0.525" style="stop-color:#288AAE"/>
		<stop  offset="1" style="stop-color:#1B1464"/>
	</radialGradient>
	<path id="路径_14302" class="st15" d="M305.8,131.1c2.2,0,4-1.8,4-4c0-2.2-1.8-4-4-4c-2.2,0-4,1.8-4,4c0,0,0,0,0,0
		C301.8,129.3,303.6,131.1,305.8,131.1z"/>
	
		<radialGradient id="椭圆_1277_1_" cx="-56.6766" cy="522.715" r="24.765" gradientTransform="matrix(7.98 0 0 -7.98 610.4696 4300.6938)" gradientUnits="userSpaceOnUse">
		<stop  offset="0" style="stop-color:#35FFF7"/>
		<stop  offset="0.164" style="stop-color:#31DEE2"/>
		<stop  offset="0.525" style="stop-color:#288AAE"/>
		<stop  offset="1" style="stop-color:#1B1464"/>
	</radialGradient>
	<circle id="椭圆_1277" class="st16" cx="269.4" cy="127.1" r="4"/>
	
		<radialGradient id="路径_14303_1_" cx="-52.1156" cy="522.715" r="24.766" gradientTransform="matrix(7.98 0 0 -7.98 574.0714 4300.6914)" gradientUnits="userSpaceOnUse">
		<stop  offset="0" style="stop-color:#35FFF7"/>
		<stop  offset="0.164" style="stop-color:#31DEE2"/>
		<stop  offset="0.525" style="stop-color:#288AAE"/>
		<stop  offset="1" style="stop-color:#1B1464"/>
	</radialGradient>
	<path id="路径_14303" class="st17" d="M233,123.1c-2.2,0-4,1.8-4,4s1.8,4,4,4s4-1.8,4-4C237,124.9,235.2,123.1,233,123.1
		C233,123.1,233,123.1,233,123.1z"/>
	
		<radialGradient id="路径_14304_1_" cx="-47.5536" cy="522.715" r="24.766" gradientTransform="matrix(7.98 0 0 -7.98 537.6733 4300.6914)" gradientUnits="userSpaceOnUse">
		<stop  offset="0" style="stop-color:#35FFF7"/>
		<stop  offset="0.164" style="stop-color:#31DEE2"/>
		<stop  offset="0.525" style="stop-color:#288AAE"/>
		<stop  offset="1" style="stop-color:#1B1464"/>
	</radialGradient>
	<path id="路径_14304" class="st18" d="M196.6,123.1c-2.2,0-4,1.8-4,4s1.8,4,4,4s4-1.8,4-4C200.6,124.9,198.8,123.1,196.6,123.1z"
		/>
	
		<radialGradient id="路径_14305_1_" cx="-42.9925" cy="522.715" r="24.766" gradientTransform="matrix(7.98 0 0 -7.98 501.2753 4300.6914)" gradientUnits="userSpaceOnUse">
		<stop  offset="0" style="stop-color:#35FFF7"/>
		<stop  offset="0.164" style="stop-color:#31DEE2"/>
		<stop  offset="0.525" style="stop-color:#288AAE"/>
		<stop  offset="1" style="stop-color:#1B1464"/>
	</radialGradient>
	<path id="路径_14305" class="st19" d="M160.2,123.1c-2.2,0-4,1.8-4,4s1.8,4,4,4s4-1.8,4-4C164.2,124.9,162.4,123.1,160.2,123.1
		L160.2,123.1z"/>
</g>
</svg>
